X: 12615
T: Farewell To Whalley Range
R: slip jig
M: 9/8
K: Eminor
E2B AGE E2D|E2B AGB edB|A3 AGA B2G|A3 AGA BAG|
E2B AGE E2D|E2B AGB edB|A3 AGA B2G|A3 ABA Bde||
g3 edB edB|A3 AGA Bde|g3 age ged|edB ABd edB|
g2e edB edB|A3 AGA Bde|g3 age ged|edB edB AGA||

